static/fa/svgs/solid/bug.svg

<svg xmlns="http://www.w3.org/2000/svg" viewBox="0 0 512 512"><!--! Font Awesome Free 6.1.1 by @fontawesome - https://fontawesome.com License - https://fontawesome.com/license/free (Icons: CC BY 4.0, Fonts: SIL OFL 1.1, Code: MIT License) Copyright 2022 Fonticons, Inc.--><path d="M352 96v3.56c0 15.74-12.7 28.44-28.4 28.44H188.4c-15.7 0-29.3-12.7-29.3-28.44V96c0-53.02 43-96 96-96C309 0 352 42.98 352 96zm-310.63 9.4c12.5-12.52 32.76-12.52 45.26 0l63.97 64c.7.6 1.3 1.3 1.9 2 14.3-7.3 30.4-11.4 46.6-11.4H312c17.1 0 33.2 4.1 47.5 11.4.6-.7 1.2-1.4 1.9-2l64-64c12.5-12.52 32.7-12.52 45.2 0 12.5 12.5 12.5 32.7 0 45.2l-64 64c-1.5.7-1.3 1.3-2 1.9 6.1 12 10 25.4 11.1 39.5H480c17.7 0 32 14.3 32 32s-14.3 32-32 32h-64c0 24.6-5.5 47.8-15.4 68.6 2.1 1.3 4.2 2.9 6 4.8l64 64c12.5 12.5 12.5 32.7 0 45.2s-32.7 12.5-45.2 0l-63.1-63c-24.5 21.8-55.8 36.2-90.3 39.6V240c0-8.8-7.2-16-16.9-16-7.9 0-16 7.2-16 16v239.2c-33.6-3.4-64.9-17.8-89.4-39.6l-63.07 63c-12.5 12.5-32.76 12.5-45.26 0-12.49-12.5-12.49-32.7 0-45.2l64.03-64c1.8-1.9 3.9-3.5 6-4.8-9.9-20.8-15.4-44-15.4-68.6H32c-17.67 0-32-14.3-32-32s14.33-32 32-32h64.3c1.08-14.1 5-27.5 11.1-39.5-.7-.6-1.4-1.2-2-1.9l-64.03-64c-12.49-12.5-12.49-32.7 0-45.2z"/></svg>

<svg xmlns="http://www.w3.org/2000/svg" viewBox="0 0 512 512"><!--! Font Awesome Free 6.1.1 by @fontawesome - https://fontawesome.com License - https://fontawesome.com/license/free (Icons: CC BY 4.0, Fonts: SIL OFL 1.1, Code: MIT License) Copyright 2022 Fonticons, Inc. --><path d="M352 96V99.56C352 115.3 339.3 128 323.6 128H188.4C172.7 128 159.1 115.3 159.1 99.56V96C159.1 42.98 202.1 0 255.1 0C309 0 352 42.98 352 96zM41.37 105.4C53.87 92.88 74.13 92.88 86.63 105.4L150.6 169.4C151.3 170 151.9 170.7 152.5 171.4C166.8 164.1 182.9 160 199.1 160H312C329.1 160 345.2 164.1 359.5 171.4C360.1 170.7 360.7 170 361.4 169.4L425.4 105.4C437.9 92.88 458.1 92.88 470.6 105.4C483.1 117.9 483.1 138.1 470.6 150.6L406.6 214.6C405.1 215.3 405.3 215.9 404.6 216.5C410.7 228.5 414.6 241.9 415.7 256H480C497.7 256 512 270.3 512 288C512 305.7 497.7 320 480 320H416C416 344.6 410.5 367.8 400.6 388.6C402.7 389.9 404.8 391.5 406.6 393.4L470.6 457.4C483.1 469.9 483.1 490.1 470.6 502.6C458.1 515.1 437.9 515.1 425.4 502.6L362.3 439.6C337.8 461.4 306.5 475.8 272 479.2V240C272 231.2 264.8 224 255.1 224C247.2 224 239.1 231.2 239.1 240V479.2C205.5 475.8 174.2 461.4 149.7 439.6L86.63 502.6C74.13 515.1 53.87 515.1 41.37 502.6C28.88 490.1 28.88 469.9 41.37 457.4L105.4 393.4C107.2 391.5 109.3 389.9 111.4 388.6C101.5 367.8 96 344.6 96 320H32C14.33 320 0 305.7 0 288C0 270.3 14.33 256 32 256H96.3C97.38 241.9 101.3 228.5 107.4 216.5C106.7 215.9 106 215.3 105.4 214.6L41.37 150.6C28.88 138.1 28.88 117.9 41.37 105.4H41.37z"/></svg>
